images/v0-logo-light.svg

<svg xmlns="http://www.w3.org/2000/svg" width="145" height="72" viewBox="0 0 145 72" fill="none">
<g clip-path="url(#clip0_421_89)">
<path d="M84.7967 0H119.333C133.336 0 144.689 11.3524 144.689 25.3563V58.2927H130.504V25.3563C130.504 25.0189 130.491 24.6839 130.465 24.3519L95.9291 58.2871C96.0455 58.2908 96.1624 58.2927 96.2797 58.2927H130.504V71.6897H96.2797C82.2758 71.6897 70.6117 60.2263 70.6117 46.2224V13.3736H84.7967V46.2224C84.7967 46.8548 84.8459 47.4798 84.9407 48.0926L120.236 13.4109C119.939 13.3862 119.638 13.3736 119.333 13.3736H84.7967V0Z" fill="#ff6b35"/>
<path d="M49.9128 69.2224L0 13.3677H20.0804L49.3843 46.1601V13.3677H64.3573V63.7088C64.3573 71.3067 54.9755 74.8878 49.9128 69.2224Z" fill="#ff6b35"/>
</g>
<defs fill="#ff6b35">
<clipPath id="clip0_421_89" fill="#ff6b35">
<rect width="144.69" height="72" fill="white"/>
</clipPath>
</defs>
</svg>

<svg xmlns="http://www.w3.org/2000/svg" width="145" height="72" fill="none"><g fill="#ff6b35" clip-path="url(#a)"><path d="M84.797 0h34.536c14.003 0 25.356 11.352 25.356 25.356v32.937h-14.185V25.356q0-.506-.039-1.004L95.929 58.287q.175.006.35.006h34.225V71.69H96.28c-14.004 0-25.668-11.464-25.668-25.468V13.374h14.185v32.848q0 .95.144 1.87l35.295-34.681a11 11 0 0 0-.903-.037H84.797zM49.913 69.222 0 13.368h20.08L49.384 46.16V13.368h14.973v50.34c0 7.599-9.382 11.18-14.444 5.514"/></g><defs fill="#ff6b35"><clipPath id="a" fill="#ff6b35"><path fill="#fff" d="M0 0h144.69v72H0z"/></clipPath></defs></svg>
